X:7637
T:Toss the Seven Feathers
O:england
M:7/8
L:1/8
C:Henrik Norbeck
H:A strange version of the reel "Toss the Feathers"
K:Edor
EBB dB~B2|EBA FEFA|BEE ~B2AB|1 dfe dB{c}AF:|2 dfe dB{c}Ad||
Bed ~e2de|{a}fed {a}fe~e2|{a}feb febe|{a}fed {a}fe~e2|
Bed ~e2de|{a}fed fa~a2|b{c'}bf ~a3f|efe dB{c}AF||


